; generated by PrusaSlicer 2.4.2+win64 on 2022-08-24 at 03:39:47 UTC


;
;
;

; external perimeters extrusion width = 0.45mm
; perimeters extrusion width = 0.45mm
; infill extrusion width = 0.45mm
; solid infill extrusion width = 0.45mm
; top infill extrusion width = 0.40mm
; first layer extrusion width = 0.47mm

M73 P0 R42
M73 Q0 S42
M201 X1000 Y1000 Z200 E5000 ; sets maximum accelerations, mm/sec^2
M203 X200 Y200 Z12 E120 ; sets maximum feedrates, mm / sec
M204 P1250 R1250 T1250 ; sets acceleration (P, T) and retract acceleration (R), mm/sec^2
M205 X8.00 Y8.00 Z0.40 E4.50 ; sets the jerk limits, mm/sec
M205 S0 T0 ; sets the minimum extruding and travel feed rate, mm/sec
M107
;TYPE:Custom
M862.3 P "MK3S" ; printer model check
M862.1 P0.4 ; nozzle diameter check
M115 U3.11.0 ; tell printer latest fw version
G90 ; use absolute coordinates
M83 ; extruder relative mode
M104 S215 ; set extruder temp
M140 S65 ; set bed temp
M190 S65 ; wait for bed temp
M109 S215 ; wait for extruder temp
G28 W ; home all without mesh bed level
G80 ; mesh bed leveling

G1 Z0.3 F720
G1 Y-3 F1000 ; go outside print area
G92 E0
G1 X60 E9 F1000 ; intro line
G1 X100 E12.5 F1000 ; intro line

G92 E0
M221 S95

; Don't change E values below. Excessive value can damage the printer.
M907 E430 ; set extruder motor current
G21 ; set units to millimeters
G90 ; use absolute coordinates
M83 ; use relative distances for extrusion
M900 K0.05 ; Filament gcode LA 1.5
M900 K30 ; Filament gcode LA 1.0
M107
;LAYER_CHANGE
;Z:0.2
;HEIGHT:0.2
;BEFORE_LAYER_CHANGE
G92 E0.0
;0.2 LAYER_Z
;0 BEFORE_LAYER_CHANGE

G1 E-2.4 F1200
G1 Z.8 F720
;AFTER_LAYER_CHANGE
;0.2
G1 X94.384 Y91.786 F10800
G1 Z.2 F720
G1 E2.4 F1200
M204 S800
;TYPE:Skirt/Brim
;WIDTH:0.47
G1 F900
G1 X96.786 Y89.384 E.12062
G1 X98.502 Y88.673 E.06597
G1 X151.498 Y88.673 E1.882
G1 X153.214 Y89.384 E.06597
M73 P0 R41
G1 X155.616 Y91.786 E.12062
G1 X156.327 Y93.502 E.06597
G1 X156.327 Y116.498 E.81665
G1 X155.616 Y118.214 E.06597
G1 X153.214 Y120.616 E.12062
G1 X151.498 Y121.327 E.06597
G1 X98.502 Y121.327 E1.882
G1 X96.786 Y120.616 E.06597
G1 X94.384 Y118.214 E.12062
G1 X93.673 Y116.498 E.06597
G1 X93.673 Y93.502 E.81665
G1 X94.361 Y91.841 E.06384
M204 S1000
;WIPE_START
G1 F8640
G1 X96.786 Y89.384 E-.45548
G1 X98.502 Y88.673 E-.2451
G1 X110.472 Y88.673 E-1.57942
;WIPE_END
G1 E-.12 F1200
G1 Z1 F720
G1 X96.989 Y93.33 F10800
G1 Z.2 F720
G1 E2.4 F1200
M204 S800
G1 F900
G1 X97.191 Y92.975 E.01451
G1 X97.903 Y92.243 E.03626
G1 X98.837 Y91.715 E.03811
G1 X99.897 Y91.47 E.03862
G1 X150.151 Y91.474 E1.78461
G1 X150.922 Y91.628 E.02794
G1 X151.705 Y91.973 E.03037
G1 X152.579 Y92.699 E.04037
G1 X153.217 Y93.676 E.04143
G1 X153.53 Y94.84 E.04281
G1 X153.53 Y115.161 E.7216
G1 X153.246 Y116.255 E.04016
M73 P1 R41
M73 Q1 S42
G1 X152.809 Y117.025 E.03144
G1 X152.097 Y117.757 E.03626
G1 X151.163 Y118.285 E.03811
G1 X150.103 Y118.53 E.03862
G1 X99.839 Y118.53 E1.78496
G1 X98.745 Y118.246 E.04016
G1 X97.975 Y117.809 E.03144
G1 X97.243 Y117.097 E.03626
G1 X96.715 Y116.163 E.03811
G1 X96.47 Y115.103 E.03862
G1 X96.47 Y94.839 E.71961
G1 X96.754 Y93.745 E.04016
G1 X96.96 Y93.382 E.0148
M204 S1000
G1 X97.326 Y93.594 F10800
M204 S800
G1 F900
G1 X97.546 Y93.213 E.01562
G1 X98.185 Y92.566 E.03228
G1 X99.017 Y92.103 E.03383
G1 X99.92 Y91.897 E.0329
G1 X150.128 Y91.901 E1.78298
G1 X150.812 Y92.042 E.02479
G1 X151.502 Y92.35 E.02684
G1 X152.279 Y93.004 E.03605
G1 X152.839 Y93.878 E.03687
G1 X153.103 Y94.868 E.03639
G1 X153.103 Y115.132 E.71961
G1 X152.841 Y116.116 E.03618
G1 X152.454 Y116.787 E.02749
G1 X151.815 Y117.434 E.03228
G1 X150.983 Y117.897 E.03383
G1 X150.08 Y118.103 E.0329
G1 X99.868 Y118.103 E1.78311
G1 X98.884 Y117.841 E.03618
G1 X98.213 Y117.454 E.02749
G1 X97.566 Y116.815 E.03228
G1 X97.103 Y115.983 E.03383
G1 X96.897 Y115.08 E.0329
G1 X96.897 Y94.868 E.71776
G1 X97.159 Y93.884 E.03618
G1 X97.296 Y93.646 E.00974
M204 S1000
G1 X97.66 Y93.86 F10800
M204 S800
G1 F900
G1 X97.899 Y93.454 E.01672
G1 X98.463 Y92.891 E.02833
G1 X99.194 Y92.493 E.02955
G1 X99.944 Y92.324 E.02728
G1 X150.105 Y92.328 E1.78133
G1 X150.699 Y92.454 E.02157
G1 X151.297 Y92.726 E.0233
G1 X151.977 Y93.307 E.03178
G1 X152.436 Y94.023 E.03019
G1 X152.676 Y94.897 E.0322
G1 X152.676 Y115.103 E.71753
G1 X152.437 Y115.975 E.03211
G1 X152.101 Y116.546 E.02353
G1 X151.537 Y117.109 E.02833
G1 X150.806 Y117.507 E.02955
G1 X150.056 Y117.676 E.02728
G1 X99.897 Y117.676 E1.78124
G1 X99.025 Y117.437 E.03211
G1 X98.454 Y117.101 E.02353
M73 Q1 S41
G1 X97.891 Y116.537 E.02833
M73 P2 R41
G1 X97.493 Y115.806 E.02955
G1 X97.324 Y115.056 E.02728
G1 X97.324 Y94.897 E.71588
G1 X97.563 Y94.025 E.03211
M73 Q2 S41
G1 X97.63 Y93.912 E.00467
M204 S1000
G1 X97.99 Y94.13 F10800
M204 S800
G1 F900
G1 X98.25 Y93.7 E.01783
G1 X98.739 Y93.218 E.02439
G1 X99.368 Y92.884 E.02527
G1 X99.967 Y92.751 E.02178
G1 X150.081 Y92.755 E1.77967
G1 X150.583 Y92.866 E.01826
G1 X151.089 Y93.1 E.01977
G1 X151.673 Y93.609 E.02753
G1 X152.034 Y94.17 E.02372
G1 X152.249 Y94.928 E.02795
G1 X152.249 Y115.072 E.71536
G1 X152.035 Y115.829 E.02793
G1 X151.75 Y116.3 E.01956
G1 X151.261 Y116.782 E.02439
G1 X150.632 Y117.116 E.02527
G1 X150.033 Y117.249 E.02178
G1 X99.928 Y117.249 E1.77934
G1 X99.171 Y117.035 E.02793
G1 X98.7 Y116.75 E.01956
G1 X98.218 Y116.261 E.02439
G1 X97.884 Y115.632 E.02527
G1 X97.751 Y115.033 E.02178
G1 X97.751 Y94.928 E.71399
G1 X97.962 Y94.182 E.02752
M204 S1000
G1 X98.366 Y94.322 F10800
M204 S800
G1 F900
G1 X98.597 Y93.949 E.01557
G1 X99.012 Y93.548 E.02049
G1 X99.537 Y93.276 E.02099
G1 X99.989 Y93.178 E.01642
G1 X150.056 Y93.182 E1.77797
G1 X150.463 Y93.276 E.01484
G1 X150.877 Y93.472 E.01624
G1 X151.367 Y93.908 E.0233
G1 X151.634 Y94.322 E.01749
G1 X151.822 Y94.96 E.02362
G1 X151.822 Y115.04 E.71311
G1 X151.634 Y115.678 E.02362
G1 X151.403 Y116.051 E.01557
G1 X150.988 Y116.452 E.02049
G1 X150.463 Y116.724 E.02099
G1 X150.011 Y116.822 E.01642
G1 X99.96 Y116.822 E1.77742
G1 X99.322 Y116.634 E.02362
M73 P2 R40
G1 X98.949 Y116.403 E.01557
G1 X98.548 Y115.988 E.02049
G1 X98.276 Y115.463 E.02099
G1 X98.178 Y115.011 E.01642
G1 X98.178 Y94.96 E.71206
G1 X98.349 Y94.379 E.02148
M204 S1000
G1 X98.756 Y94.505 F10800
M204 S800
G1 F900
G1 X98.913 Y94.238 E.01099
G1 X99.284 Y93.879 E.01834
G1 X99.701 Y93.671 E.01655
G1 X100.011 Y93.605 E.01124
G1 X150.031 Y93.609 E1.77631
G1 X150.301 Y93.672 E.00984
M73 P3 R40
G1 X150.664 Y93.843 E.01425
G1 X151.058 Y94.204 E.01896
G1 X151.235 Y94.477 E.01158
G1 X151.395 Y94.993 E.01917
G1 X151.395 Y115.007 E.71073
G1 X151.235 Y115.525 E.01924
M73 Q3 S41
G1 X151.087 Y115.762 E.00993
G1 X150.716 Y116.121 E.01834
G1 X150.299 Y116.329 E.01655
G1 X149.989 Y116.395 E.01124
G1 X99.993 Y116.395 E1.77545
G1 X99.475 Y116.235 E.01924
G1 X99.238 Y116.087 E.00993
G1 X98.879 Y115.716 E.01834
G1 X98.671 Y115.299 E.01655
G1 X98.605 Y114.989 E.01124
G1 X98.605 Y94.993 E.71009
G1 X98.738 Y94.562 E.01601
M204 S1000
G1 X99.142 Y94.695 F10800
M204 S800
G1 F900
G1 X99.254 Y94.495 E.00814
G1 X99.551 Y94.214 E.0145
G1 X99.859 Y94.069 E.0121
G1 X100.033 Y94.032 E.00631
G1 X150.006 Y94.036 E1.77466
G1 X150.139 Y94.068 E.00483
G1 X150.449 Y94.214 E.01219
G1 X150.746 Y94.495 E.0145
G1 X150.84 Y94.639 E.00611
G1 X150.968 Y95.029 E.01457
G1 X150.968 Y114.971 E.70818
G1 X150.84 Y115.361 E.01457
G1 X150.746 Y115.505 E.00611
G1 X150.449 Y115.786 E.0145
G1 X150.141 Y115.931 E.0121
G1 X149.967 Y115.968 E.00631
G1 X100.029 Y115.968 E1.7734
G1 X99.639 Y115.84 E.01457
G1 X99.495 Y115.746 E.00611
G1 X99.214 Y115.449 E.0145
G1 X99.069 Y115.141 E.0121
G1 X99.032 Y114.967 E.00631
G1 X99.032 Y95.029 E.70805
G1 X99.123 Y94.752 E.01036
M204 S1000
G1 X99.522 Y94.894 F10800
M204 S800
G1 F900
G1 X99.572 Y94.781 E.00442
G1 X99.769 Y94.583 E.0099
G1 X100.053 Y94.459 E.01099
G1 X149.983 Y94.467 E1.77314
G1 X150.231 Y94.583 E.00971
G1 X150.428 Y94.781 E.0099
G1 X150.541 Y95.069 E.01099
G1 X150.541 Y114.931 E.70536
G1 X150.448 Y115.189 E.00971
G1 X150.231 Y115.417 E.01118
G1 X149.947 Y115.541 E.01099
G1 X100.069 Y115.541 E1.77128
G1 X99.811 Y115.448 E.00971
G1 X99.583 Y115.231 E.01118
G1 X99.459 Y114.947 E.01099
G1 X99.459 Y95.069 E.70593
G1 X99.502 Y94.951 E.00444
M204 S1000
M73 P4 R40
G1 X99.888 Y95.111 F10800
M204 S800
G1 F900
G1 X99.919 Y95.038 E.00283
G1 X100.038 Y94.919 E.00596
G1 X100.116 Y94.886 E.00302
G1 X149.884 Y94.886 E1.76734
G1 X149.962 Y94.919 E.00302
M73 Q4 S41
G1 X150.081 Y95.038 E.00596
G1 X150.114 Y95.116 E.00302
G1 X150.114 Y114.884 E.70199
G1 X150.081 Y114.962 E.00302
G1 X149.962 Y115.081 E.00596
G1 X149.884 Y115.114 E.00302
G1 X100.116 Y115.114 E1.76734
G1 X100.038 Y115.081 E.00302
G1 X99.919 Y114.962 E.00596
G1 X99.886 Y114.884 E.00302
G1 X99.886 Y95.171 E.70005
M204 S1000
; printing object TT.stl id:0 copy 0
;WIPE_START
G1 F8640
M73 Q4 S40
G1 X99.919 Y95.038 E-.01809
G1 X100.038 Y94.919 E-.02214
G1 X100.116 Y94.886 E-.01121
G1 X117.006 Y94.886 E-2.22856
;WIPE_END
G1 E-.12 F1200
G1 Z1 F720
G1 X114.042 Y114.565 F10800
G1 Z.2 F720
G1 E2.4 F1200
M204 S800
;TYPE:External perimeter
G1 F900
G1 X100.435 Y114.565 E.48322
G1 X100.435 Y95.435 E.67934
G1 X149.565 Y95.435 E1.7447
G1 X149.565 Y114.565 E.67934
G1 X114.102 Y114.565 E1.25934
M204 S1000
G1 X113.788 Y114.256 F10800
G1 X114.042 Y114.138
M204 S800
;TYPE:Perimeter
G1 F900
G1 X100.862 Y114.138 E.46806
G1 X100.862 Y95.862 E.64901
G1 X149.138 Y95.862 E1.71436
G1 X149.138 Y114.138 E.64901
M73 P5 R40
G1 X114.102 Y114.138 E1.24418
M204 S1000
G1 X114.042 Y113.711 F10800
M204 S800
M73 Q5 S40
G1 F900
G1 X101.289 Y113.711 E.45289
G1 X101.289 Y96.289 E.61868
M73 P5 R39
G1 X148.711 Y96.289 E1.68403
G1 X148.711 Y113.711 E.61868
G1 X114.102 Y113.711 E1.22901
M204 S1000
;WIPE_START
G1 F8640
G1 X101.289 Y113.711 E-1.69063
G1 X101.289 Y109.244 E-.58937
;WIPE_END
G1 E-.12 F1200
G1 Z1 F720
G1 X147.714 Y96.417 F10800
G1 Z.2 F720
G1 E2.4 F1200
M204 S800
;TYPE:Solid infill
;WIDTH:0.472629
G1 F900
G1 X148.391 Y97.094 E.0342
G1 X148.391 Y97.702 E.02171
G1 X147.298 Y96.609 E.05519
G1 X146.691 Y96.609 E.02171
G1 X148.391 Y98.309 E.0859
G1 X148.391 Y98.917 E.02171
G1 X146.083 Y96.609 E.11661
G1 X145.475 Y96.609 E.02171
G1 X148.391 Y99.525 E.14731
G1 X148.391 Y100.132 E.02171
G1 X144.868 Y96.609 E.17802
G1 X144.26 Y96.609 E.02171
G1 X148.391 Y100.74 E.20873
G1 X148.391 Y101.348 E.02171
G1 X143.652 Y96.609 E.23944
G1 X143.044 Y96.609 E.02171
G1 X148.391 Y101.956 E.27014
G1 X148.391 Y102.563 E.02171
G1 X142.437 Y96.609 E.30085
G1 X141.829 Y96.609 E.02171
G1 X148.391 Y103.171 E.33156
G1 X148.391 Y103.779 E.02171
G1 X141.221 Y96.609 E.36227
G1 X140.614 Y96.609 E.02171
G1 X148.391 Y104.386 E.39297
G1 X148.391 Y104.994 E.02171
G1 X140.006 Y96.609 E.42368
G1 X139.398 Y96.609 E.02171
G1 X148.391 Y105.602 E.45439
G1 X148.391 Y106.21 E.02171
G1 X138.791 Y96.609 E.48509
G1 X138.183 Y96.609 E.02171
G1 X148.391 Y106.817 E.5158
G1 X148.391 Y107.425 E.02171
G1 X137.575 Y96.609 E.54651
G1 X136.967 Y96.609 E.02171
G1 X148.391 Y108.033 E.57722
G1 X148.391 Y108.64 E.02171
G1 X136.36 Y96.609 E.60792
G1 X135.752 Y96.609 E.02171
M73 P6 R39
G1 X148.391 Y109.248 E.63863
G1 X148.391 Y109.856 E.02171
M73 Q6 S40
G1 X135.144 Y96.609 E.66934
G1 X134.537 Y96.609 E.02171
G1 X148.391 Y110.463 E.70005
G1 X148.391 Y111.071 E.02171
G1 X133.929 Y96.609 E.73075
G1 X133.321 Y96.609 E.02171
G1 X148.391 Y111.679 E.76146
G1 X148.391 Y112.287 E.02171
G1 X132.713 Y96.609 E.79217
G1 X132.106 Y96.609 E.02171
G1 X148.391 Y112.894 E.82288
G1 X148.391 Y113.391 E.01773
G1 X148.279 Y113.391 E.00398
G1 X131.498 Y96.609 E.84796
G1 X130.89 Y96.609 E.02171
G1 X147.671 Y113.391 E.84796
G1 X147.064 Y113.391 E.02171
G1 X130.283 Y96.609 E.84796
G1 X129.675 Y96.609 E.02171
G1 X146.456 Y113.391 E.84796
G1 X145.848 Y113.391 E.02171
G1 X129.067 Y96.609 E.84796
G1 X128.46 Y96.609 E.02171
M73 Q6 S39
G1 X145.241 Y113.391 E.84796
G1 X144.633 Y113.391 E.02171
G1 X127.852 Y96.609 E.84796
G1 X127.244 Y96.609 E.02171
G1 X144.025 Y113.391 E.84796
G1 X143.418 Y113.391 E.02171
G1 X126.636 Y96.609 E.84796
G1 X126.029 Y96.609 E.02171
M73 P7 R39
G1 X142.81 Y113.391 E.84796
G1 X142.202 Y113.391 E.02171
G1 X125.421 Y96.609 E.84796
G1 X124.813 Y96.609 E.02171
M73 Q7 S39
G1 X141.594 Y113.391 E.84796
G1 X140.987 Y113.391 E.02171
G1 X124.206 Y96.609 E.84796
G1 X123.598 Y96.609 E.02171
G1 X140.379 Y113.391 E.84796
G1 X139.771 Y113.391 E.02171
G1 X122.99 Y96.609 E.84796
G1 X122.383 Y96.609 E.02171
G1 X139.164 Y113.391 E.84796
G1 X138.556 Y113.391 E.02171
G1 X121.775 Y96.609 E.84796
G1 X121.167 Y96.609 E.02171
G1 X137.948 Y113.391 E.84796
G1 X137.341 Y113.391 E.02171
M73 P7 R38
G1 X120.559 Y96.609 E.84796
G1 X119.952 Y96.609 E.02171
G1 X136.733 Y113.391 E.84796
G1 X136.125 Y113.391 E.02171
G1 X119.344 Y96.609 E.84796
G1 X118.736 Y96.609 E.02171
G1 X135.517 Y113.391 E.84796
G1 X134.91 Y113.391 E.02171
G1 X118.129 Y96.609 E.84796
G1 X117.521 Y96.609 E.02171
G1 X134.302 Y113.391 E.84796
G1 X133.694 Y113.391 E.02171
G1 X116.913 Y96.609 E.84796
G1 X116.306 Y96.609 E.02171
M73 P8 R38
G1 X133.087 Y113.391 E.84796
G1 X132.479 Y113.391 E.02171
G1 X115.698 Y96.609 E.84796
G1 X115.09 Y96.609 E.02171
M73 Q8 S39
G1 X131.871 Y113.391 E.84796
G1 X131.264 Y113.391 E.02171
G1 X114.482 Y96.609 E.84796
G1 X113.875 Y96.609 E.02171
G1 X130.656 Y113.391 E.84796
G1 X130.048 Y113.391 E.02171
G1 X113.267 Y96.609 E.84796
G1 X112.659 Y96.609 E.02171
G1 X129.44 Y113.391 E.84796
G1 X128.833 Y113.391 E.02171
G1 X112.052 Y96.609 E.84796
G1 X111.444 Y96.609 E.02171
G1 X128.225 Y113.391 E.84796
G1 X127.617 Y113.391 E.02171
G1 X110.836 Y96.609 E.84796
G1 X110.229 Y96.609 E.02171
G1 X127.01 Y113.391 E.84796
G1 X126.402 Y113.391 E.02171
G1 X109.621 Y96.609 E.84796
G1 X109.013 Y96.609 E.02171
G1 X125.794 Y113.391 E.84796
G1 X125.187 Y113.391 E.02171
G1 X108.405 Y96.609 E.84796
G1 X107.798 Y96.609 E.02171
G1 X124.579 Y113.391 E.84796
G1 X123.971 Y113.391 E.02171
G1 X107.19 Y96.609 E.84796
G1 X106.582 Y96.609 E.02171
M73 P9 R38
G1 X123.363 Y113.391 E.84796
G1 X122.756 Y113.391 E.02171
M73 Q9 S38
G1 X105.975 Y96.609 E.84796
G1 X105.367 Y96.609 E.02171
G1 X122.148 Y113.391 E.84796
G1 X121.54 Y113.391 E.02171
G1 X104.759 Y96.609 E.84796
G1 X104.152 Y96.609 E.02171
G1 X120.933 Y113.391 E.84796
G1 X120.325 Y113.391 E.02171
G1 X103.544 Y96.609 E.84796
G1 X102.936 Y96.609 E.02171
G1 X119.717 Y113.391 E.84796
G1 X119.11 Y113.391 E.02171
G1 X102.328 Y96.609 E.84796
G1 X101.721 Y96.609 E.02171
G1 X118.502 Y113.391 E.84796
G1 X117.894 Y113.391 E.02171
G1 X101.609 Y97.106 E.82287
G1 X101.609 Y97.714 E.02171
G1 X117.286 Y113.391 E.79217
G1 X116.679 Y113.391 E.02171
G1 X101.609 Y98.321 E.76146
G1 X101.609 Y98.929 E.02171
G1 X116.071 Y113.391 E.73075
G1 X115.463 Y113.391 E.02171
G1 X101.609 Y99.537 E.70005
G1 X101.609 Y100.144 E.02171
M73 P9 R37
G1 X114.856 Y113.391 E.66934
G1 X114.248 Y113.391 E.02171
G1 X101.609 Y100.752 E.63863
G1 X101.609 Y101.36 E.02171
M73 P10 R37
G1 X113.64 Y113.391 E.60792
G1 X113.033 Y113.391 E.02171
G1 X101.609 Y101.967 E.57722
G1 X101.609 Y102.575 E.02171
G1 X112.425 Y113.391 E.54651
G1 X111.817 Y113.391 E.02171
M73 Q10 S38
G1 X101.609 Y103.183 E.5158
G1 X101.609 Y103.791 E.02171
G1 X111.209 Y113.391 E.48509
G1 X110.602 Y113.391 E.02171
G1 X101.609 Y104.398 E.45439
G1 X101.609 Y105.006 E.02171
G1 X109.994 Y113.391 E.42368
G1 X109.386 Y113.391 E.02171
G1 X101.609 Y105.614 E.39297
G1 X101.609 Y106.221 E.02171
G1 X108.779 Y113.391 E.36226
G1 X108.171 Y113.391 E.02171
G1 X101.609 Y106.829 E.33156
G1 X101.609 Y107.437 E.02171
G1 X107.563 Y113.391 E.30085
G1 X106.956 Y113.391 E.02171
G1 X101.609 Y108.044 E.27014
G1 X101.609 Y108.652 E.02171
G1 X106.348 Y113.391 E.23943
G1 X105.74 Y113.391 E.02171
G1 X101.609 Y109.26 E.20873
G1 X101.609 Y109.868 E.02171
G1 X105.132 Y113.391 E.17802
G1 X104.525 Y113.391 E.02171
G1 X101.609 Y110.475 E.14731
G1 X101.609 Y111.083 E.02171
G1 X103.917 Y113.391 E.1166
G1 X103.309 Y113.391 E.02171
G1 X101.609 Y111.691 E.0859
G1 X101.609 Y112.298 E.02171
G1 X102.702 Y113.391 E.05519
G1 X102.094 Y113.391 E.02171
G1 X101.417 Y112.714 E.03419
M204 S1000
; stop printing object TT.stl id:0 copy 0
M106 S84.15
;LAYER_CHANGE
;Z:0.4
;HEIGHT:0.2
